Origami/32x32/apps/estmob-sendanywhere.svg

<svg width="32" height="32" version="1" xmlns="http://www.w3.org/2000/svg">
 <rect transform="matrix(0,-1,-1,0,0,0)" x="-31" y="-30" width="28" height="28" rx="1.4" ry="1.4" style="opacity:.2"/>
 <rect transform="matrix(0,-1,-1,0,0,0)" x="-30" y="-30" width="28" height="28" rx="1.4" ry="1.4" style="fill:#ff5a48"/>
 <path d="m21.435547 4.99995a0.44123194 0.44123194 0 0 0 -0.435547 0.4414062v1.5585938h-10.714844l-0.115234 0.017578s-1.0130797 0.1459129-2.0273439 0.7929688c-1.0142641 0.647056-2.1425781 2.021596-2.1425781 3.9394532v9.25h3v-9.25c0-0.882143 0.3201235-1.132176 0.7558594-1.410156 0.4143336-0.264327 0.7921666-0.332156 0.8320316-0.339844h11.71289 3.257813a0.44123194 0.44123194 0 0 0 0.3125 -0.7539062l-4.117188-4.1171876a0.44123194 0.44123194 0 0 0 -0.318359 -0.1289062zm1.564453 7v9.25c0 0.882143-0.320124 1.132176-0.755859 1.410156-0.414334 0.264327-0.792167 0.332156-0.832032 0.339844h-10.853515-4.1171878a0.44123194 0.44123194 0 0 0 -0.3125 0.753906l4.1171878 4.117188a0.44123194 0.44123194 0 0 0 0.318359 0.128906 0.44123194 0.44123194 0 0 0 0.435547 -0.441406v-1.558594h10.714844l0.115234-0.01758s1.01308-0.145913 2.027344-0.792969c1.014264-0.647052 2.142578-2.021594 2.142578-3.939451v-9.25h-3zm-9.666016 2c-0.738666 0-1.333984 0.595318-1.333984 1.333984v1.332032c0 0.738666 0.595318 1.333984 1.333984 1.333984h0.332032c0.738666 0 1.333984-0.595318 1.333984-1.333984v-1.332032c0-0.738666-0.595318-1.333984-1.333984-1.333984h-0.332032zm5 0c-0.738666 0-1.333984 0.595318-1.333984 1.333984v1.332032c0 0.738666 0.595318 1.333984 1.333984 1.333984h0.332032c0.738666 0 1.333984-0.595318 1.333984-1.333984v-1.332032c0-0.738666-0.595318-1.333984-1.333984-1.333984h-0.332032z" style="fill-rule:evenodd;opacity:.2"/>
 <path d="m7.5 20.000001v-9.249928c0-2.8000003 2.9-3.2500724 2.9-3.2500724h11.9" style="fill:none;stroke-width:3;stroke:#ffffff"/>
 <path d="m21.434867 3.9998715a0.44123194 0.44123194 0 0 0 -0.434867 0.4411885v4.1177531a0.44123194 0.44123194 0 0 0 0.441187 0.4411875h4.117754a0.44123194 0.44123194 0 0 0 0.311933 -0.7531217l-4.117753-4.1177526a0.44123194 0.44123194 0 0 0 -0.318254 -0.1292548z" style="fill:#ffffff"/>
 <rect x="12" y="13" width="3" height="4" ry="1.333" style="fill:#ffffff"/>
 <path d="m24.5 11.000001v9.249755c0 2.8-2.9 3.250072-2.9 3.250072h-11.9" style="fill:none;stroke-width:3;stroke:#ffffff"/>
 <path d="m10.565133 26.999957a0.44123194 0.44123194 0 0 0 0.434867 -0.441188v-4.117753a0.44123194 0.44123194 0 0 0 -0.441187 -0.441188h-4.117754a0.44123194 0.44123194 0 0 0 -0.311933 0.753122l4.117753 4.117752a0.44123194 0.44123194 0 0 0 0.318254 0.129255z" style="fill:#ffffff"/>
 <rect x="17" y="13" width="3" height="4" ry="1.333" style="fill:#ffffff"/>
 <path d="M 3.4003906 2 C 2.6247906 2 2 2.6247906 2 3.4003906 L 2 4.4003906 C 2 3.6247906 2.6247906 3 3.4003906 3 L 28.599609 3 C 29.375209 3 30 3.6247906 30 4.4003906 L 30 3.4003906 C 30 2.6247906 29.375209 2 28.599609 2 L 3.4003906 2 z" style="fill:#ffffff;opacity:.2"/>
</svg>

<svg xmlns="http://www.w3.org/2000/svg" width="32" height="32" version="1">
 <rect style="opacity:0.2" width="28" height="28" x="-31" y="-30" rx="1.4" ry="1.4" transform="matrix(0,-1,-1,0,0,0)"/>
 <rect style="fill:#ff5a48" width="28" height="28" x="-30" y="-30" rx="1.4" ry="1.4" transform="matrix(0,-1,-1,0,0,0)"/>
 <path style="opacity:0.2;fill-rule:evenodd" d="M 21.435547,4.99995 A 0.44123194,0.44123194 0 0 0 21,5.4413562 l 0,1.5585938 -10.714844,0 -0.115234,0.017578 c 0,0 -1.0130797,0.1459129 -2.0273439,0.7929688 C 7.128314,8.4575528 6,9.8320928 6,11.74995 l 0,9.25 3,0 0,-9.25 C 9,10.867807 9.3201235,10.617774 9.7558594,10.339794 10.170193,10.075467 10.548026,10.007638 10.587891,9.99995 l 11.71289,0 3.257813,0 a 0.44123194,0.44123194 0 0 0 0.3125,-0.7539062 L 21.753906,5.1288562 A 0.44123194,0.44123194 0 0 0 21.435547,4.99995 Z m 1.564453,7 0,9.25 c 0,0.882143 -0.320124,1.132176 -0.755859,1.410156 -0.414334,0.264327 -0.792167,0.332156 -0.832032,0.339844 l -10.853515,0 -4.1171878,0 a 0.44123194,0.44123194 0 0 0 -0.3125,0.753906 l 4.1171878,4.117188 A 0.44123194,0.44123194 0 0 0 10.564453,27.99995 0.44123194,0.44123194 0 0 0 11,27.558544 l 0,-1.558594 10.714844,0 0.115234,-0.01758 c 0,0 1.01308,-0.145913 2.027344,-0.792969 C 24.871686,24.542349 26,23.167807 26,21.24995 l 0,-9.25 -3,0 z m -9.666016,2 C 12.595318,13.99995 12,14.595268 12,15.333934 l 0,1.332032 c 0,0.738666 0.595318,1.333984 1.333984,1.333984 l 0.332032,0 C 14.404682,17.99995 15,17.404632 15,16.665966 l 0,-1.332032 C 15,14.595268 14.404682,13.99995 13.666016,13.99995 l -0.332032,0 z m 5,0 C 17.595318,13.99995 17,14.595268 17,15.333934 l 0,1.332032 c 0,0.738666 0.595318,1.333984 1.333984,1.333984 l 0.332032,0 C 19.404682,17.99995 20,17.404632 20,16.665966 l 0,-1.332032 C 20,14.595268 19.404682,13.99995 18.666016,13.99995 l -0.332032,0 z"/>
 <path style="fill:none;stroke:#ffffff;stroke-width:3" d="m 7.5,20.000001 0,-9.249928 c 0,-2.8000003 2.9,-3.2500724 2.9,-3.2500724 l 11.9,0"/>
 <path style="fill:#ffffff" d="M 21.434867,3.9998715 A 0.44123194,0.44123194 0 0 0 21,4.44106 l 0,4.1177531 a 0.44123194,0.44123194 0 0 0 0.441187,0.4411875 l 4.117754,0 A 0.44123194,0.44123194 0 0 0 25.870874,8.2468789 L 21.753121,4.1291263 A 0.44123194,0.44123194 0 0 0 21.434867,3.9998715 Z"/>
 <rect style="fill:#ffffff" width="3" height="4" x="12" y="13" ry="1.333"/>
 <path style="fill:none;stroke:#ffffff;stroke-width:3" d="m 24.5,11.000001 0,9.249755 c 0,2.8 -2.9,3.250072 -2.9,3.250072 l -11.9,0"/>
 <path style="fill:#ffffff" d="M 10.565133,26.999957 A 0.44123194,0.44123194 0 0 0 11,26.558769 l 0,-4.117753 a 0.44123194,0.44123194 0 0 0 -0.441187,-0.441188 l -4.117754,0 A 0.44123194,0.44123194 0 0 0 6.129126,22.75295 l 4.117753,4.117752 a 0.44123194,0.44123194 0 0 0 0.318254,0.129255 z"/>
 <rect style="fill:#ffffff" width="3" height="4" x="17" y="13" ry="1.333"/>
 <path style="fill:#ffffff;opacity:0.2" d="M 3.4003906 2 C 2.6247906 2 2 2.6247906 2 3.4003906 L 2 4.4003906 C 2 3.6247906 2.6247906 3 3.4003906 3 L 28.599609 3 C 29.375209 3 30 3.6247906 30 4.4003906 L 30 3.4003906 C 30 2.6247906 29.375209 2 28.599609 2 L 3.4003906 2 z"/>
</svg>
